X:49
T:Dalston Forge. WI.049
M:C|
L:1/8
Q:1/2=80
C:”A Hornpipe by Wm. Adams”
S:Wm Irwin, Folio MS, c1850. AGG’s Transcription
R:.Hornpipe
O:England
A:Lake District
Z:vmp.Chris Partington.2005
K:Bb
de|f2fb d2df|dcec BAGF|DFBd EGce|FAdf Bdfb|!
f2gd B2Bd|dcec BAGF|DFBd EGce|dcBA B2:|!
de|f=efg fdcB|GBAB G2Gg|f=efg fdge|egfe c2de|!
g=efg ((3f/g/a/) bg|fecB G2FB|GBFB GBed|AFGA “DaCapo”Bcde|]

